Newaita-dark/apps/22/gnome-nibbles.svg

<svg height="22" viewBox="0 0 22 22" width="22" xmlns="http://www.w3.org/2000/svg" xmlns:xlink="http://www.w3.org/1999/xlink"><linearGradient id="a" gradientUnits="userSpaceOnUse" x1="10.9151136" x2="10.9151136" y1="19.27333715" y2="20.18293042919"><stop offset="0" stop-opacity=".27451"/><stop offset="1" stop-opacity="0"/></linearGradient><linearGradient id="b"><stop offset="0" stop-opacity=".313726"/><stop offset=".222222" stop-opacity=".27451"/><stop offset="1" stop-opacity="0"/></linearGradient><radialGradient id="c" cx="450.908936" cy="189.579361" gradientTransform="matrix(.00000012 -.0537161 -.0966889 -.00000007 35.839821 43.721791)" gradientUnits="userSpaceOnUse" r="21.166656" xlink:href="#b"/><radialGradient id="d" cx="450.908936" cy="189.579361" gradientTransform="matrix(-.00000012 .0537161 .0966889 .00000007 -14.009609 -5.175142)" gradientUnits="userSpaceOnUse" r="21.166656" xlink:href="#b"/><radialGradient id="e" cx="450.908936" cy="189.579361" gradientTransform="matrix(-.00000012 -.0537161 .0966889 -.00000007 -14.009609 43.721791)" gradientUnits="userSpaceOnUse" r="21.166656" xlink:href="#b"/><radialGradient id="f" cx="450.908936" cy="189.579361" gradientTransform="matrix(.00000012 .0537161 -.0966889 .00000007 35.839819 -5.175142)" gradientUnits="userSpaceOnUse" r="21.166656" xlink:href="#b"/><linearGradient id="g" gradientUnits="userSpaceOnUse" x1="7.27674417081" x2="7.27674417081" y1="19.27333515" y2="1.99106765838"><stop offset="0" stop-color="#424242"/><stop offset="1" stop-color="#616161"/></linearGradient><linearGradient id="h" gradientUnits="userSpaceOnUse" x1="6.594542" x2="6.594542" y1="14.72536401286" y2="13.13357801286"><stop offset="0" stop-color="#ef5350"/><stop offset="1" stop-color="#e57373"/></linearGradient><path d="m4.09375 19.207031h13.644531v1.007813h-13.644531zm0 0" fill="url(#a)"/><path d="m17.738281 19.273438h1.816407v-.910157h-1.816407zm0 0" fill="url(#c)"/><path d="m4.09375 19.273438h-1.820312v.910156h1.820312zm0 0" fill="url(#d)"/><path d="m4.09375 19.273438h-1.820312v-.910157h1.820312zm0 0" fill="url(#e)"/><path d="m17.738281 19.273438h1.816407v.910156h-1.816407zm0 0" fill="url(#f)"/><path d="m3.183594 1.992188h15.464844c.5 0 .90625.40625.90625.910156v15.460937c0 .503907-.40625.910157-.90625.910157h-15.464844c-.503906 0-.910156-.40625-.910156-.910157v-15.460937c0-.503906.40625-.910156.910156-.910156zm0 0" fill="url(#g)"/><path d="m3.183594 1.992188c-.503906 0-.910156.40625-.910156.910156v.113281c0-.503906.40625-.910156.910156-.910156h15.464844c.503906 0 .90625.40625.90625.910156v-.113281c0-.503906-.402344-.910156-.90625-.910156zm0 0" fill="#e6e6e6" fill-opacity=".392157"/><path d="m3.183594 19.273438c-.503906 0-.910156-.40625-.910156-.910157v-.113281c0 .503906.40625.910156.910156.910156h15.464844c.503906 0 .90625-.40625.90625-.910156v.113281c0 .503907-.402344.910157-.90625.910157zm0 0" fill-opacity=".196078"/><path d="m74.083834-168.640791h359.874725c11.635253 0 21.088895 9.453643 21.088895 21.179796v359.783824c0 11.726153-9.453642 21.179796-21.088895 21.179796h-359.874725c-11.726152 0-21.179795-9.453643-21.179795-21.179796v-359.783824c0-11.726153 9.453643-21.179796 21.179795-21.179796zm0 0" fill="none" stroke="#212121" stroke-linecap="round" stroke-width="3" transform="matrix(.0429729 0 0 .0429729 0 9.239163)"/><path d="m6.59375 5.855469c-.25 0-.453125.203125-.453125.457031v4.320312c0 .25.203125.453126.453125.453126.253906 0 .457031-.203126.457031-.453126v-3.867187h3.410157v7.503906c0 .253907.175781.457031.398437.457031h4.375c.253906 0 .457031-.203124.457031-.457031 0-.25-.203125-.453125-.457031-.453125h-3.863281v-7.503906c0-.253906-.179688-.457031-.398438-.457031zm0 0" fill="#81c784"/><path d="m6.140625 13.132812c-.253906 0-.457031.203126-.457031.457032v.679687c0 .253907.203125.457031.457031.457031h.910156c.25 0 .453125-.203124.453125-.457031v-.679687c0-.253906-.203125-.457032-.453125-.457032h-.230469v.226563c0 .128906-.101562.230469-.226562.230469s-.226562-.101563-.226562-.230469v-.226563zm0 0" fill="url(#h)"/><path d="m6.59375 12.566406c.1875 0 .34375.152344.34375.339844v.339844c0 .191406-.15625.34375-.34375.34375s-.339844-.152344-.339844-.34375v-.339844c0-.1875.152344-.339844.339844-.339844zm0 0" fill="#689f38" fill-opacity=".995816"/><path d="m6.59375 12.566406c-.1875 0-.339844.152344-.339844.339844v.226562c0-.1875.152344-.339843.339844-.339843.191406 0 .34375.152343.34375.339843v-.226562c0-.1875-.152344-.339844-.34375-.339844zm0 0" fill="#fff" fill-opacity=".392157"/><path d="m6.59375 5.855469c-.25 0-.453125.203125-.453125.457031v.226562c0-.253906.203125-.453124.453125-.453124h4.378906c.21875 0 .398438.199218.398438.453124v-.226562c0-.253906-.179688-.457031-.398438-.457031zm4.777344 7.960937v.226563h3.863281c.214844 0 .390625.144531.441406.339843.007813-.035156.015625-.074218.015625-.113281 0-.25-.203125-.453125-.457031-.453125zm0 0" fill="#fff" fill-opacity=".392157"/><path d="m7.050781 6.765625v.34375h3.410157v-.34375zm-.910156 3.867187v.339844c0 .253906.203125.457032.453125.457032.253906 0 .457031-.203126.457031-.457032v-.339844c0 .25-.203125.453126-.457031.453126-.25 0-.453125-.203126-.453125-.453126zm4.320313 3.636719v.34375c0 .25.175781.453125.398437.453125h4.375c.253906 0 .457031-.203125.457031-.453125 0-.0625-.011718-.121093-.035156-.171875-.066406.167969-.230469.285156-.421875.285156h-4.375c-.222656 0-.398437-.203124-.398437-.457031zm0 0" fill-opacity=".235294"/><path d="m153.439893-78.740285c-5.817627 0-10.544448 4.726821-10.544448 10.635348v100.535854c0 5.817626 4.726821 10.544448 10.544448 10.544448 5.908526 0 10.635348-4.726822 10.635348-10.544448v-89.991406h79.356058v174.619688c0 5.908527 4.090518 10.635348 9.271842 10.635348h101.808459c5.908527 0 10.635348-4.726821 10.635348-10.635348 0-5.817626-4.726821-10.544448-10.635348-10.544448h-89.900505v-174.619688c0-5.908527-4.181419-10.635348-9.271842-10.635348zm0 0" fill="none" stroke="#212121" stroke-linecap="square" stroke-linejoin="bevel" stroke-width="3" transform="matrix(.0429729 0 0 .0429729 0 9.239163)"/><path d="m6.140625 13.132812c-.253906 0-.457031.203126-.457031.457032v.226562c0-.253906.203125-.457031.457031-.457031h.226563v-.226563zm.679687 0v.226563h.230469c.25 0 .453125.203125.453125.457031v-.226562c0-.253906-.203125-.457032-.453125-.457032zm-.453124.226563v.230469c0 .125.101562.226562.226562.226562s.226562-.101562.226562-.226562v-.230469c0 .128906-.101562.230469-.226562.230469s-.226562-.101563-.226562-.230469zm0 0" fill="#fff" fill-opacity=".392157"/><path d="m5.683594 14.269531v.34375c0 .25.203125.453125.457031.453125h.910156c.25 0 .453125-.203125.453125-.453125v-.34375c0 .253907-.203125.457031-.453125.457031h-.910156c-.253906 0-.457031-.203124-.457031-.457031zm0 0" fill-opacity=".235294"/><g stroke="#212121" stroke-linecap="square" stroke-linejoin="bevel"><path d="m540.077301 1155.050818c-22.33144 0-40.196593 17.865153-40.196593 40.196593v59.779549c0 22.33144 17.865153 40.196593 40.196593 40.196593h80.049626c21.987879 0 39.853032-17.865153 39.853032-40.196593v-59.779549c0-22.33144-17.865153-40.196593-39.853032-40.196593h-20.270077v19.926516c0 11.337501-8.932577 20.270077-19.926516 20.270077-10.99394 0-19.926517-8.932576-19.926517-20.270077v-19.926516zm0 0" fill="none" stroke-width="11.338583" transform="scale(.0113699)"/><path d="m153.439893 77.42662c4.363219 0 7.999236 3.545116 7.999236 7.908336v7.908336c0 4.45412-3.636017 7.999236-7.999236 7.999236-4.36322 0-7.908336-3.545116-7.908336-7.999236v-7.908336c0-4.36322 3.545116-7.908336 7.908336-7.908336zm0 0" fill="#689f38" fill-opacity=".995816" stroke-width="3" transform="matrix(.0429729 0 0 .0429729 0 9.239163)"/></g></svg>

<?xml version="1.0" encoding="UTF-8"?>
<svg xmlns="http://www.w3.org/2000/svg" xmlns:xlink="http://www.w3.org/1999/xlink" width="22px" height="22px" viewBox="0 0 22 22" version="1.1">
<defs>
<linearGradient id="linear0" gradientUnits="userSpaceOnUse" x1="254" y1="233.5" x2="254" y2="254.666672" gradientTransform="matrix(0.0429729,0,0,0.0429729,-0.00000262285,9.239165)">
<stop offset="0" style="stop-color:rgb(0%,0%,0%);stop-opacity:0.27451;"/>
<stop offset="1" style="stop-color:rgb(0%,0%,0%);stop-opacity:0;"/>
</linearGradient>
<radialGradient id="radial0" gradientUnits="userSpaceOnUse" cx="450.908936" cy="189.579361" fx="450.908936" fy="189.579361" r="21.166656" gradientTransform="matrix(0.000000119742,-0.0537161,-0.0966889,-0.0000000698078,35.839821,43.721791)">
<stop offset="0" style="stop-color:rgb(0%,0%,0%);stop-opacity:0.313726;"/>
<stop offset="0.222222" style="stop-color:rgb(0%,0%,0%);stop-opacity:0.27451;"/>
<stop offset="1" style="stop-color:rgb(0%,0%,0%);stop-opacity:0;"/>
</radialGradient>
<radialGradient id="radial1" gradientUnits="userSpaceOnUse" cx="450.908936" cy="189.579361" fx="450.908936" fy="189.579361" r="21.166656" gradientTransform="matrix(-0.000000119742,0.0537161,0.0966889,0.0000000698078,-14.009609,-5.175142)">
<stop offset="0" style="stop-color:rgb(0%,0%,0%);stop-opacity:0.313726;"/>
<stop offset="0.222222" style="stop-color:rgb(0%,0%,0%);stop-opacity:0.27451;"/>
<stop offset="1" style="stop-color:rgb(0%,0%,0%);stop-opacity:0;"/>
</radialGradient>
<radialGradient id="radial2" gradientUnits="userSpaceOnUse" cx="450.908936" cy="189.579361" fx="450.908936" fy="189.579361" r="21.166656" gradientTransform="matrix(-0.000000119742,-0.0537161,0.0966889,-0.0000000698078,-14.009609,43.721791)">
<stop offset="0" style="stop-color:rgb(0%,0%,0%);stop-opacity:0.313726;"/>
<stop offset="0.222222" style="stop-color:rgb(0%,0%,0%);stop-opacity:0.27451;"/>
<stop offset="1" style="stop-color:rgb(0%,0%,0%);stop-opacity:0;"/>
</radialGradient>
<radialGradient id="radial3" gradientUnits="userSpaceOnUse" cx="450.908936" cy="189.579361" fx="450.908936" fy="189.579361" r="21.166656" gradientTransform="matrix(0.000000119742,0.0537161,-0.0966889,0.0000000698078,35.839819,-5.175142)">
<stop offset="0" style="stop-color:rgb(0%,0%,0%);stop-opacity:0.313726;"/>
<stop offset="0.222222" style="stop-color:rgb(0%,0%,0%);stop-opacity:0.27451;"/>
<stop offset="1" style="stop-color:rgb(0%,0%,0%);stop-opacity:0;"/>
</radialGradient>
<linearGradient id="linear1" gradientUnits="userSpaceOnUse" x1="169.333328" y1="233.5" x2="169.333328" y2="-168.666656" gradientTransform="matrix(0.0429729,0,0,0.0429729,0,9.239163)">
<stop offset="0" style="stop-color:rgb(25.882354%,25.882354%,25.882354%);stop-opacity:1;"/>
<stop offset="1" style="stop-color:rgb(38.039216%,38.039216%,38.039216%);stop-opacity:1;"/>
</linearGradient>
<linearGradient id="linear2" gradientUnits="userSpaceOnUse" x1="580" y1="1295.118164" x2="580" y2="1155.118164" gradientTransform="matrix(0.0113699,0,0,0.0113699,0,0)">
<stop offset="0" style="stop-color:rgb(93.725491%,32.549021%,31.37255%);stop-opacity:1;"/>
<stop offset="1" style="stop-color:rgb(89.803922%,45.09804%,45.09804%);stop-opacity:1;"/>
</linearGradient>
</defs>
<g id="surface1">
<path style=" stroke:none;fill-rule:nonzero;fill:url(#linear0);" d="M 4.09375 19.207031 L 17.738281 19.207031 L 17.738281 20.214844 L 4.09375 20.214844 Z M 4.09375 19.207031 "/>
<path style=" stroke:none;fill-rule:nonzero;fill:url(#radial0);" d="M 17.738281 19.273438 L 19.554688 19.273438 L 19.554688 18.363281 L 17.738281 18.363281 Z M 17.738281 19.273438 "/>
<path style=" stroke:none;fill-rule:nonzero;fill:url(#radial1);" d="M 4.09375 19.273438 L 2.273438 19.273438 L 2.273438 20.183594 L 4.09375 20.183594 Z M 4.09375 19.273438 "/>
<path style=" stroke:none;fill-rule:nonzero;fill:url(#radial2);" d="M 4.09375 19.273438 L 2.273438 19.273438 L 2.273438 18.363281 L 4.09375 18.363281 Z M 4.09375 19.273438 "/>
<path style=" stroke:none;fill-rule:nonzero;fill:url(#radial3);" d="M 17.738281 19.273438 L 19.554688 19.273438 L 19.554688 20.183594 L 17.738281 20.183594 Z M 17.738281 19.273438 "/>
<path style=" stroke:none;fill-rule:nonzero;fill:url(#linear1);" d="M 3.183594 1.992188 L 18.648438 1.992188 C 19.148438 1.992188 19.554688 2.398438 19.554688 2.902344 L 19.554688 18.363281 C 19.554688 18.867188 19.148438 19.273438 18.648438 19.273438 L 3.183594 19.273438 C 2.679688 19.273438 2.273438 18.867188 2.273438 18.363281 L 2.273438 2.902344 C 2.273438 2.398438 2.679688 1.992188 3.183594 1.992188 Z M 3.183594 1.992188 "/>
<path style=" stroke:none;fill-rule:nonzero;fill:rgb(90.196079%,90.196079%,90.196079%);fill-opacity:0.392157;" d="M 3.183594 1.992188 C 2.679688 1.992188 2.273438 2.398438 2.273438 2.902344 L 2.273438 3.015625 C 2.273438 2.511719 2.679688 2.105469 3.183594 2.105469 L 18.648438 2.105469 C 19.152344 2.105469 19.554688 2.511719 19.554688 3.015625 L 19.554688 2.902344 C 19.554688 2.398438 19.152344 1.992188 18.648438 1.992188 Z M 3.183594 1.992188 "/>
<path style=" stroke:none;fill-rule:nonzero;fill:rgb(0%,0%,0%);fill-opacity:0.196078;" d="M 3.183594 19.273438 C 2.679688 19.273438 2.273438 18.867188 2.273438 18.363281 L 2.273438 18.25 C 2.273438 18.753906 2.679688 19.160156 3.183594 19.160156 L 18.648438 19.160156 C 19.152344 19.160156 19.554688 18.753906 19.554688 18.25 L 19.554688 18.363281 C 19.554688 18.867188 19.152344 19.273438 18.648438 19.273438 Z M 3.183594 19.273438 "/>
<path style="fill:none;stroke-width:3;stroke-linecap:round;stroke-linejoin:miter;stroke:rgb(12.941177%,12.941177%,12.941177%);stroke-opacity:1;stroke-miterlimit:4;" d="M 74.083834 -168.640791 L 433.958559 -168.640791 C 445.593812 -168.640791 455.047454 -159.187148 455.047454 -147.460995 L 455.047454 212.322829 C 455.047454 224.048982 445.593812 233.502625 433.958559 233.502625 L 74.083834 233.502625 C 62.357682 233.502625 52.904039 224.048982 52.904039 212.322829 L 52.904039 -147.460995 C 52.904039 -159.187148 62.357682 -168.640791 74.083834 -168.640791 Z M 74.083834 -168.640791 " transform="matrix(0.0429729,0,0,0.0429729,0,9.239163)"/>
<path style=" stroke:none;fill-rule:nonzero;fill:rgb(50.588238%,78.039217%,51.764709%);fill-opacity:1;" d="M 6.59375 5.855469 C 6.34375 5.855469 6.140625 6.058594 6.140625 6.3125 L 6.140625 10.632812 C 6.140625 10.882812 6.34375 11.085938 6.59375 11.085938 C 6.847656 11.085938 7.050781 10.882812 7.050781 10.632812 L 7.050781 6.765625 L 10.460938 6.765625 L 10.460938 14.269531 C 10.460938 14.523438 10.636719 14.726562 10.859375 14.726562 L 15.234375 14.726562 C 15.488281 14.726562 15.691406 14.523438 15.691406 14.269531 C 15.691406 14.019531 15.488281 13.816406 15.234375 13.816406 L 11.371094 13.816406 L 11.371094 6.3125 C 11.371094 6.058594 11.191406 5.855469 10.972656 5.855469 Z M 6.59375 5.855469 "/>
<path style=" stroke:none;fill-rule:nonzero;fill:url(#linear2);" d="M 6.140625 13.132812 C 5.886719 13.132812 5.683594 13.335938 5.683594 13.589844 L 5.683594 14.269531 C 5.683594 14.523438 5.886719 14.726562 6.140625 14.726562 L 7.050781 14.726562 C 7.300781 14.726562 7.503906 14.523438 7.503906 14.269531 L 7.503906 13.589844 C 7.503906 13.335938 7.300781 13.132812 7.050781 13.132812 L 6.820312 13.132812 L 6.820312 13.359375 C 6.820312 13.488281 6.71875 13.589844 6.59375 13.589844 C 6.46875 13.589844 6.367188 13.488281 6.367188 13.359375 L 6.367188 13.132812 Z M 6.140625 13.132812 "/>
<path style=" stroke:none;fill-rule:nonzero;fill:rgb(40.784314%,62.352943%,21.960784%);fill-opacity:0.995816;" d="M 6.59375 12.566406 C 6.78125 12.566406 6.9375 12.71875 6.9375 12.90625 L 6.9375 13.246094 C 6.9375 13.4375 6.78125 13.589844 6.59375 13.589844 C 6.40625 13.589844 6.253906 13.4375 6.253906 13.246094 L 6.253906 12.90625 C 6.253906 12.71875 6.40625 12.566406 6.59375 12.566406 Z M 6.59375 12.566406 "/>
<path style=" stroke:none;fill-rule:nonzero;fill:rgb(100%,100%,100%);fill-opacity:0.392157;" d="M 6.59375 12.566406 C 6.40625 12.566406 6.253906 12.71875 6.253906 12.90625 L 6.253906 13.132812 C 6.253906 12.945312 6.40625 12.792969 6.59375 12.792969 C 6.785156 12.792969 6.9375 12.945312 6.9375 13.132812 L 6.9375 12.90625 C 6.9375 12.71875 6.785156 12.566406 6.59375 12.566406 Z M 6.59375 12.566406 "/>
<path style=" stroke:none;fill-rule:nonzero;fill:rgb(100%,100%,100%);fill-opacity:0.392157;" d="M 6.59375 5.855469 C 6.34375 5.855469 6.140625 6.058594 6.140625 6.3125 L 6.140625 6.539062 C 6.140625 6.285156 6.34375 6.085938 6.59375 6.085938 L 10.972656 6.085938 C 11.191406 6.085938 11.371094 6.285156 11.371094 6.539062 L 11.371094 6.3125 C 11.371094 6.058594 11.191406 5.855469 10.972656 5.855469 Z M 11.371094 13.816406 L 11.371094 14.042969 L 15.234375 14.042969 C 15.449219 14.042969 15.625 14.1875 15.675781 14.382812 C 15.683594 14.347656 15.691406 14.308594 15.691406 14.269531 C 15.691406 14.019531 15.488281 13.816406 15.234375 13.816406 Z M 11.371094 13.816406 "/>
<path style=" stroke:none;fill-rule:nonzero;fill:rgb(0%,0%,0%);fill-opacity:0.235294;" d="M 7.050781 6.765625 L 7.050781 7.109375 L 10.460938 7.109375 L 10.460938 6.765625 Z M 6.140625 10.632812 L 6.140625 10.972656 C 6.140625 11.226562 6.34375 11.429688 6.59375 11.429688 C 6.847656 11.429688 7.050781 11.226562 7.050781 10.972656 L 7.050781 10.632812 C 7.050781 10.882812 6.847656 11.085938 6.59375 11.085938 C 6.34375 11.085938 6.140625 10.882812 6.140625 10.632812 Z M 10.460938 14.269531 L 10.460938 14.613281 C 10.460938 14.863281 10.636719 15.066406 10.859375 15.066406 L 15.234375 15.066406 C 15.488281 15.066406 15.691406 14.863281 15.691406 14.613281 C 15.691406 14.550781 15.679688 14.492188 15.65625 14.441406 C 15.589844 14.609375 15.425781 14.726562 15.234375 14.726562 L 10.859375 14.726562 C 10.636719 14.726562 10.460938 14.523438 10.460938 14.269531 Z M 10.460938 14.269531 "/>
<path style="fill:none;stroke-width:3;stroke-linecap:square;stroke-linejoin:bevel;stroke:rgb(12.941177%,12.941177%,12.941177%);stroke-opacity:1;stroke-miterlimit:4;" d="M 153.439893 -78.740285 C 147.622266 -78.740285 142.895445 -74.013464 142.895445 -68.104937 L 142.895445 32.430917 C 142.895445 38.248543 147.622266 42.975365 153.439893 42.975365 C 159.348419 42.975365 164.075241 38.248543 164.075241 32.430917 L 164.075241 -57.560489 L 243.431299 -57.560489 L 243.431299 117.059199 C 243.431299 122.967726 247.521817 127.694547 252.703141 127.694547 L 354.5116 127.694547 C 360.420127 127.694547 365.146948 122.967726 365.146948 117.059199 C 365.146948 111.241573 360.420127 106.514751 354.5116 106.514751 L 264.611095 106.514751 L 264.611095 -68.104937 C 264.611095 -74.013464 260.429676 -78.740285 255.339253 -78.740285 Z M 153.439893 -78.740285 " transform="matrix(0.0429729,0,0,0.0429729,0,9.239163)"/>
<path style=" stroke:none;fill-rule:nonzero;fill:rgb(100%,100%,100%);fill-opacity:0.392157;" d="M 6.140625 13.132812 C 5.886719 13.132812 5.683594 13.335938 5.683594 13.589844 L 5.683594 13.816406 C 5.683594 13.5625 5.886719 13.359375 6.140625 13.359375 L 6.367188 13.359375 L 6.367188 13.132812 Z M 6.820312 13.132812 L 6.820312 13.359375 L 7.050781 13.359375 C 7.300781 13.359375 7.503906 13.5625 7.503906 13.816406 L 7.503906 13.589844 C 7.503906 13.335938 7.300781 13.132812 7.050781 13.132812 Z M 6.367188 13.359375 L 6.367188 13.589844 C 6.367188 13.714844 6.46875 13.816406 6.59375 13.816406 C 6.71875 13.816406 6.820312 13.714844 6.820312 13.589844 L 6.820312 13.359375 C 6.820312 13.488281 6.71875 13.589844 6.59375 13.589844 C 6.46875 13.589844 6.367188 13.488281 6.367188 13.359375 Z M 6.367188 13.359375 "/>
<path style=" stroke:none;fill-rule:nonzero;fill:rgb(0%,0%,0%);fill-opacity:0.235294;" d="M 5.683594 14.269531 L 5.683594 14.613281 C 5.683594 14.863281 5.886719 15.066406 6.140625 15.066406 L 7.050781 15.066406 C 7.300781 15.066406 7.503906 14.863281 7.503906 14.613281 L 7.503906 14.269531 C 7.503906 14.523438 7.300781 14.726562 7.050781 14.726562 L 6.140625 14.726562 C 5.886719 14.726562 5.683594 14.523438 5.683594 14.269531 Z M 5.683594 14.269531 "/>
<path style="fill:none;stroke-width:11.338583;stroke-linecap:square;stroke-linejoin:bevel;stroke:rgb(12.941177%,12.941177%,12.941177%);stroke-opacity:1;stroke-miterlimit:4;" d="M 540.077301 1155.050818 C 517.745861 1155.050818 499.880708 1172.915971 499.880708 1195.247411 L 499.880708 1255.02696 C 499.880708 1277.3584 517.745861 1295.223553 540.077301 1295.223553 L 620.126927 1295.223553 C 642.114806 1295.223553 659.979959 1277.3584 659.979959 1255.02696 L 659.979959 1195.247411 C 659.979959 1172.915971 642.114806 1155.050818 620.126927 1155.050818 L 599.85685 1155.050818 L 599.85685 1174.977334 C 599.85685 1186.314835 590.924273 1195.247411 579.930334 1195.247411 C 568.936394 1195.247411 560.003817 1186.314835 560.003817 1174.977334 L 560.003817 1155.050818 Z M 540.077301 1155.050818 " transform="matrix(0.0113699,0,0,0.0113699,0,0)"/>
<path style="fill-rule:nonzero;fill:rgb(40.784314%,62.352943%,21.960784%);fill-opacity:0.995816;stroke-width:3;stroke-linecap:square;stroke-linejoin:bevel;stroke:rgb(12.941177%,12.941177%,12.941177%);stroke-opacity:1;stroke-miterlimit:4;" d="M 153.439893 77.42662 C 157.803112 77.42662 161.439129 80.971736 161.439129 85.334956 L 161.439129 93.243292 C 161.439129 97.697412 157.803112 101.242528 153.439893 101.242528 C 149.076673 101.242528 145.531557 97.697412 145.531557 93.243292 L 145.531557 85.334956 C 145.531557 80.971736 149.076673 77.42662 153.439893 77.42662 Z M 153.439893 77.42662 " transform="matrix(0.0429729,0,0,0.0429729,0,9.239163)"/>
</g>
</svg>
